X: 22758
T: Ländler
R: waltz
M: 3/4
K: Cmajor
GG|:("C"Ge) (cG) (EG)|("G7"GB) (BG) (FG)|(GB) (BG) (fG)|("C"Ge) (cG) (EG)|
Ge) (cG) (EG)|("G7"GB) (BG) (FG)|GB BG fB|1 "C"c2 z2 gg:|2 "C"c2z2 gg||
|:"G7"g3f f2|("C"eG) (Ge) (Ge)|("G7"fG) (Gf) (Gf)|("C"eG) (Ge) (Ge)|
"G7"g3f f2|("C"eG) (Ge) (Ge)|("G7"fG) (Gf) (GB)|1 "C"c2z2gg:|2 "C"c2z2z2||
|:"C"g2 (ag) (^fg)|e4c2|g2 (ag) (^fg)|"G7"f4d2|
g2 (ag) (^fg)|.b3f f2|.a3BB2|."C"c3 e g2|
g2 (ag) ('fg)|e4c2|g2 (ag) (^fg)|"G7"f4d2|
g2 (ag) (^fg)|b3b b2|.b.a .g.f .e.d|"C"c2z2z2:|

